X: 1904
T: the Alewife and her Barrel
C: (Trad.)
R: Reel
B: RSCDS 19-4
Z: Anselm Lingnau <anselm@strathspey.org>
N: Tune for dance by the same name
M: C|
L: 1/8
K: G
D |:\
"G"G2GB "D"AGAB | "G"G2GB "(Bm)"dedB |\
"Em"G2GB "Am"AGAB |1 "D7"GEDE "(G)"GAGD :|2 "G"dBGB "D7"de dB ||
|:\
"G"dege "D"agfd | "C"efge "D"af"G"g2 |\
"G"dege "D"agfd | "G"edBd "D7"ef"G"g2 :|
